X:1
T:Violin Caprice No. 23 in E-Flat Major
T:Violin Caprice No. 23 in E-Flat Major
T:Op. 1, No. 23
T:Niccolò Paganini
C:Niccolò Paganini
%%score ( 1 2 )
L:1/8
Q:1/4=55
M:6/8
K:Eb
V:1 treble nm="Violin" snm="Vln."
V:2 treble 
V:1
"^Posato" [Bb] | [ee']2 (B,/C/4D/4 E2) [Bb] | [ee']2 (B,/C/4D/4 E2) [Bb] | %3
 [ee']2 [ff'] [gg']/[aa']/4[gg']/4 [ff'][ee'] |{/[ff']} [Bb]3 z2 :: ([Bb]/[bb']/) | %6
 [bb'](10:8:10([bb']/4[=a=a']/4[_a_a']/4[gg']/4[_g_g']/4[ff']/4[=e=e']/4[_e_e']/4[dd']/4[_d_d']/4) [cc'][Cc][B,B] | %7
 [A,A]([aa']/[gg']/) (3([gg']/[ff']/[=e=e']/) [ff'][Ff][ff']/[aa']/ | %8
 [aa'](10:8:10([aa']/4[gg']/4[_g_g']/4[ff']/4[=e=e']/4[_e_e']/4[dd']/4[_d_d']/4[cc']/4[_c_c']/4) [Bb][B,B][A,A] | %9
 [G,G]([gg']/[ff']/) (3([ff']/[ee']/[dd']/) [ee'][Ee]([ee']/[_g_g']/) | %10
 !>![_g_g']3/2([ff']/4[=e=e']/4[_e_e']/4[dd']/4[_d_d']/4[cc']/4) [_c_c'].[_Cc]([ee']/[gg']/) | %11
 !>![_g_g']3/2(7:6:7([ff']/4[=e=e']/4[_e_e']/4[dd']/4[_d_d']/4[cc']/4[_c_c']/4) [Bb].[B,B]([ee']/[gg']/) | %12
 !>![_g_g']3/2(8:6:8([ff']/4[=e=e']/4[_e_e']/4[dd']/4[_d_d']/4[cc']/4[_c_c']/4[Bb]/4) [=A=a].[=A,A]([gg']/[ee']/) | %13
 [dd']/.[B,B]/.[Dd]/.[Ff]/.[Bb]/.[dd']/ (.[ff']/.[bb']/) [B,B] [Bb] | [ee']2 (B,/C/4D/4 E2) [Bb] | %15
 [gg']2 (5:4:5(B,/4C/4D/4E/4F/4 G2) [bb']/ z/ | ([G,B]2 [A,A] G2 TF) | [G,Ee]3 z2!fine! :: %18
[Q:1/4=55]"^Minore" G | %19
 [G,Ec]/(G/8F/8E/8D/8 C/)[G,Ee]/ G/(G/8F/8E/8D/8 C/)[G,Ecg]/ (G/4^F/4A/4G/4=F/4E/4D/4C/4) | %20
 [G,D=B]/(D/8C/8=B,/8=A,/8 G,/)[G,DBg]/ D/(D/8C/8B,/8A,/8 G,/)[G,DBd']/ (B,/4C/4D/4E/4F/4)._A/4.G/4.F/4 | %21
 (E/4D/4C/4).e'/4 (E/4D/4C/4).e'/4 (D/4=B,/4G,/4).d'/4 (E/4D/4C/4).e'/4 (E/4D/4C/4).e'/4 (D/4B,/4G,/4).d'/4 | %22
 (E/4D/4C/4).e'/4 (C/4B,/4A,/4).c'/4 (C/4B,/4A,/4).^f/4 [G,D=Bg] z :: g | %24
 [G=ec']/ (G/8F/8=E/8D/8 C/)[Bg=e']/ (G/8F/8E/8D/8C/) [Aff']/(c/8B/8A/8G/8 F/)(a/4g/4f/4_e/4d/4c/4) | %25
 [DBb]/ (F/8E/8D/8C/8 B,/)[Afd']/ (F/8E/8D/8C/8B,/) [Gee']/(B/8A/8G/8F/8 E/)(g/4f/4e/4d/4c/4B/4) | %26
 A/4E/4A/4E/4 [B,G]/(g/4f/4e/4d/4c/4B/4) A/4E/4A/4E/4 [B,G]/(g/4f/4e/4d/4c/4B/4) | %27
 (A/4E/4A/4E/4 G/4E/4G/4E/4 _G/4E/4G/4E/4) .[B,D]/(f/8e/8d/8c/8 B/)(f'/8e'/8d'/8c'/8 b/).[_A,D]/ | %28
"_dim." .[G,E]/(B/8A/8G/8F/8 E/)(e/8d/8c/8B/8 =A/).[CE]/ .[B,D]/(f/8e/8d/8c/8 B/)(f'/8e'/8d'/8c'/8 b/).[A,D]/ | %29
 .[G,E]/(B/8A/8G/8F/8 E/)(e/8d/8c/8B/8 =A/).[CE]/ .[B,D]/(f/8e/8d/8c/8 B/)(f'/8e'/8d'/8c'/8 b/)(f/8e/8d/8c/8 | %30
"_cresc." B/)(F/8E/8D/8C/8 B,/)(f/8e/8d/8c/8 B/)(F/8E/8D/8C/8 =B,/)(f'/8e'/8d'/8c'/8 =b/)(f/8e/8d/8c/8 =B/)(G/8F/8E/8D/8 | %31
!mf! C/)(g'/8f'/8e'/8d'/8 c'/)(g/8f/8e/8d/8 c/)(G/8E/8C/8B,/8 A,/)(c'/8a/8^f/8e/8 c/)(f/8e/8c/8A/8 ^F/)(F/8E/8C/8A,/8 | %32
 G,/)(g/8=a/8^f/8a/8 g/)(=b/8c'/8a/8c'/8 b/)(=B,/8D/8B,/8_A,/8 G,/)(b/8c'/8a/8c'/8 b/)(d'/8e'/8c'/8e'/8 d'/)(D/8F/8D/8C/8) | %33
 =B,/(d'/8e'/8c'/8e'/8 d'/)(f'/8g'/8=e'/8g'/8 f'/)(!>!d'/8c'/8=b/8a/8 !>!g/4f/4e/4d/4 !>!b/4a/4g/4f/4 !>!e/4d/4c/4=B/4 !>!a/8g/8f/8e/8d/8c/8B/8A/8G/8F/8E/8D/8) | %34
 [=Ecc']/ (G/8F/8E/8D/8 C/)[Bg=e']/ (G/8F/8E/8D/8C/) [Aff']/(c/8B/8A/8G/8 F/)(a/4g/4b/4a/4g/4f/4) | %35
 .E/4(g/4e/4c/4) .A/4(a/4f/4d/4) .G,/4(f/4d/4=B/4) (E/4D/4C/4).e'/4 (E/4D/4C/4).e'/4 (D/4=B,/4G,/4).d'/4 | %36
 (E/4D/4C/4).e'/4 (E/4D/4C/4).e'/4 (D/4=B,/4G,/4).d'/4 (E/4D/4C/4).e'/4 (F/4E/4D/4).f'/4 (G/4F/4E/4).g'/4 | %37
 (A/4G/4F/4).a'/4 z [G,D=Bg]/ z/ C2!D.C.! :| %38
V:2
 x | x6 | x6 | x6 | x5 :: x | x6 | x6 | x6 | x6 | x6 | x383/64 | x6 | x6 | x6 | x6 | x3 B,3 | x5 :: %18
 x | x6 | x6 | x6 | x5 :: x | x6 | x6 | C x2 C x2 | C B, =A, x2 x | x6 | x6 | x6 | x6 | x6 | %33
 x15/2 | x6 | x6 | x6 | x5 :| %38

